icons/svg/disk-alert.svg

﻿<?xml version="1.0" encoding="utf-8"?>
<!DOCTYPE svg PUBLIC "-//W3C//DTD SVG 1.1//EN" "http://www.w3.org/Graphics/SVG/1.1/DTD/svg11.dtd">
<svg xmlns="http://www.w3.org/2000/svg" xmlns:xlink="http://www.w3.org/1999/xlink" version="1.1" baseProfile="full" width="24" height="24" viewBox="0 0 24.00 24.00" enable-background="new 0 0 24.00 24.00" xml:space="preserve">
	<path fill="#000000" fill-opacity="1" stroke-width="0.2" stroke-linejoin="round" d="M 9.9994,13.9981C 8.8944,13.9981 7.9994,13.1021 7.9994,11.9981C 7.9994,10.8931 8.8944,9.99807 9.9994,9.99807C 11.1034,9.99807 11.9994,10.8931 11.9994,11.9981C 11.9994,13.1021 11.1034,13.9981 9.9994,13.9981 Z M 9.9994,3.99807C 5.5814,3.99807 1.9994,7.58007 1.9994,11.9981C 1.9994,16.4171 5.5814,19.9981 9.9994,19.9981C 14.4174,19.9981 17.9994,16.4171 17.9994,11.9981C 17.9994,7.58007 14.4174,3.99807 9.9994,3.99807 Z M 19.9994,11.9981L 21.9994,11.9981L 21.9994,6.99807L 19.9994,6.99807M 19.9994,15.9981L 21.9994,15.9981L 21.9994,13.9981L 19.9994,13.9981L 19.9994,15.9981 Z "/>
</svg>

<svg xmlns="http://www.w3.org/2000/svg" version="1.1" baseProfile="full" width="24" height="24" viewBox="0 0 24.00 24.00" xml:space="preserve"><path fill="#000" fill-opacity="1" stroke-width=".2" stroke-linejoin="round" d="M10 13.998c-1.106 0-2-.896-2-2 0-1.105.894-2 2-2 1.103 0 2 .895 2 2 0 1.104-.897 2-2 2zm0-10c-4.42 0-8 3.582-8 8 0 4.42 3.58 8 8 8 4.417 0 8-3.58 8-8 0-4.418-3.583-8-8-8zm10 8h2v-5h-2m0 9h2v-2h-2v2z"/></svg>
